X: 99
T: Wszyscy, którzy po ziemi chodzicie,
C: Mikołaj Gomółka
%%abc-version 2.0
%%abcx-abcm2ps-target-version 5.9.1 (29 Sep 2008)
%%abc-creator hum2abc beta
%%abcx-conversion-date 2021/10/04 07:59:10
%%abc-edited-by Anna Matuszewska
%%abcx-initial-encoding-date 2020-02-17
%%humdrum-veritas 434192221
%%humdrum-veritas-data 824797561
%%linebreak <none>
%%barnumbers 0
L: 1/4
M: C|
N: Derived from pl-wn--sd-xvi-qu-273--100_gomolka-mikolaj--wszyscy-ktorzy-po-ziemi-chodzicie.krn
%%staves [1 2 3 4]
V: 1 clef=treble
V: 2
V: 3 clef=alto
V: 4
K: C
[V:1] G4G2E2 [I:setbarnb 3][|] 
[V:2] D4E3D [|] 
[V:3] B,4C2A,2 [|] 
[V:4] G,4C,2CB, [|] 
[V:1] F2G2A3G [|] 
[V:2] C2DE2<F2G [|] 
[V:3] A,2B,2C2A,3 [|] 
[V:4] A,2G,2F,3E, [|] 
[V:1] F2E2D4 [|] 
[V:2] A2EFG4 [|] 
[V:3] B,C4B,2 [|] 
[V:4] D,2C,2G,4 [|] 
[V:1] E2G2c3c [|] 
[V:2] G2G2A3A [|] 
[V:3] C2E2F3F [|] 
[V:4] C,2C2F,3F, [|] 
[V:1] B2e2f3e [|] 
[V:2] G2c2c3B [|] 
[V:3] D2G2A3G [|] 
[V:4] G,2C,2F,6 [|] 
[V:1] d2c4B2 [|] 
[V:2] A2A2G3F [|] 
[V:3] F4E2D2 [|] 
[V:4] F,2G,4 [|] 
[V:1] c2e2e2e2 [|] 
[V:2] E2A2c2c2 [|] 
[V:3] C2G2A2EF [|] 
[V:4] C,2C2A,B,C2 [|] 
[V:1] d2d2c3A2 [|] 
[V:2] B2>A2G3F2 [|] 
[V:3] G2>F2E3C3/ [|] 
[V:4] G,2G,2C,3F,2 [|] 
[V:1] Bc2B2e2 [|] 
[V:2] GE>FG2G2 [|] 
[V:3] D/EC2D2C2 [|] 
[V:4] E,A,2G,2C,2 [|] 
[V:1] f2>e2d2e2 [|] 
[V:2] A2>G2G2B2 [|] 
[V:3] C2>C2D2GF [|] 
[V:4] F,2>C,2G,2E,2 [|] 
[V:1] c2>B2ABc4 [|] 
[V:2] A4A2G2 [|] 
[V:3] ED2<C2DE2 [|] 
[V:4] A,2>G,2F,2E,2 [|] 
[V:1] B2c4 [|] 
[V:2] A2GFE4 [|] 
[V:3] D4C4 [|] 
[V:4] F,2G,2C,4 [|] 


